www/assets/icons/card_travel.svg

<svg xmlns="http://www.w3.org/2000/svg" width="24" height="24" viewBox="0 0 24 24" fill='currentColor'><path d="M20 6.5h-3v-2c0-1.11-.89-2-2-2H9c-1.11 0-2 .89-2 2v2H4c-1.11 0-2 .89-2 2v11c0 1.11.89 2 2 2h16c1.11 0 2-.89 2-2v-11c0-1.11-.89-2-2-2m-11-2h6v2H9zm11 15H4v-2h16zm0-5H4v-6h3v2h2v-2h6v2h2v-2h3z"/></svg>

<svg width="24" height="24" viewBox="0 0 24 24" xmlns="http://www.w3.org/2000/svg" fill='currentColor'><path d="M20 6.5H17V4.5C17 3.39 16.11 2.5 15 2.5H9C7.89 2.5 7 3.39 7 4.5V6.5H4C2.89 6.5 2 7.39 2 8.5V19.5C2 20.61 2.89 21.5 4 21.5H20C21.11 21.5 22 20.61 22 19.5V8.5C22 7.39 21.11 6.5 20 6.5ZM9 4.5H15V6.5H9V4.5ZM20 19.5H4V17.5H20V19.5ZM20 14.5H4V8.5H7V10.5H9V8.5H15V10.5H17V8.5H20V14.5Z"/></svg>
